!!!OTL: Alte Kuckukslieder. / a. Kuckuks Ausflug.
!!!ARE: Europa, Mitteleuropa, Deutschland
!!!SCT: A0170A
!!!TXL: @@GMH
!!!YEM: Copyright 1995, estate of Helmut Schaffrath.
**kern	**text
*M4/2	*
*met(c|)	*
*clefC4	*
*k[b-]	*
*F:	*
{2F	Ein
=1	=1
2F	guck-
2c	-guck
2c	wolt
2A	auß-
=2	=2
1c	-flie-
2c}	-gen
{2B-	ʒu
=3	=3
2A	ſei-
2G	-nem
2A	her-
2B-	-tʒen-
=4	=4
1G	-lie-
2F}	-be.
{2F	So
=5	=5
2A	fleug
2G	du
2A	hin
2B-	gar
=6	=6
1c	bal-
2G}	-de,
{2G	wol
=7	=7
2A	in
2G	den
2A	grü-
2B-	-nen
=8	=8
1c	wal-
2G	-de:
2A	Guck-
=9	=9
!LO:TX:a:t=P:1F in the source:problem	!
!LO:N:vis=1	!
1.F;}	-guck!
==	==
!!!GTL: Liebeslieder
!!!AGN: Romanze, Ballade, Lied
!! Aus Fragmenten in Schmeltzels neuntem Quodlibet (1544) von mir
!!    zusammengefuegt. Anders und ohne alle musikalische Ruecksicht
!!    von Uhland No. 14 zusammengesetzt.
!!!ONB: ESAC (Essen Associative Code) Database: ALTDEU
!!!AMT: simple quadruple
!!!AIN: vox
!!!EED: Helmut Schaffrath
!!!EEV: 1.0
!!!URL-scan: https://rosdok.uni-rostock.de/mcrviewer/recordIdentifier/rosdok_ppn738218359/iview2/phys_0334.iview2?x=-495.6391625615763&y=1492.6280788176227&scale=0.4629418472063854&rotation=0&layout=singlePageLayout&logicalDiv=log_0009
!!!ENC: Anna Maria Matuszewska
!!!EEV: 2024/07/03
*-	*-
